X: 3
T: Swinging on a Gate
I: Swinging on a Gate	R-35	G	reel
M: C|
R: reel
K: G
|:\
"G"gedB G2AB | "Am"cABG AGEG |\
"G"DGBd g2g2 | "D"fgag fdef |\
"G"gedB G2AB |
"Am"cABG AGEG |\
"C"cABG "Am"AGEG | "D"DGGF "G"G2d2 ::\
"G"gfga bagf | "Em"gfed B2AG |
"Am"EAAB cBAG | EAAB "D"cdef |\
"G"gfga bagf | "Em"gfed edBd |\
"Am"cABG "C"AGEG | "D"DGGA "G"G4 :|

